!!!COM: Al-Taneer, Abdul-Qader
!!!CDT: 1901-1957
!!!OTL: National Anthem, Jordan
!!!ENC: Davis, Matthew J.
!!Vocal Line Only
**kern
*clefG2
*k[b-]
*F:
*M4/4
=1-
2f
4.f
8g
=2
1a
==:|!3
4b-
4a
4g
4f
=4
4a
4g
2f
=5
4cc
8dd
8cc
4b-
8cc
8b-
=6
4a
8b-
8a
4g
8a
8g
=7
2f
2e
=8
8f
2..f
==|!
*-
